assets/icons/eyes-size.svg

<svg width="24" height="24" viewBox="0 0 24 24" fill="none" xmlns="http://www.w3.org/2000/svg">
<path fill-rule="evenodd" clip-rule="evenodd" d="M4.27297 11.9999C5.91797 14.3809 8.76097 15.9599 12 15.9599C15.239 15.9599 18.08 14.3799 19.727 11.9999C18.08 9.61995 15.239 8.03995 12 8.03995C8.76097 8.03995 5.91797 9.61995 4.27297 11.9999ZM3.53797 11.8039C5.29397 9.10795 8.42997 7.31995 12 7.31995C15.57 7.31995 18.706 9.10795 20.462 11.8029C20.5001 11.8614 20.5203 11.9297 20.5203 11.9994C20.5203 12.0692 20.5001 12.1375 20.462 12.1959C18.706 14.8929 15.569 16.6799 12 16.6799C8.42997 16.6799 5.29397 14.8919 3.53797 12.1969C3.49989 12.1385 3.47961 12.0702 3.47961 12.0004C3.47961 11.9307 3.49989 11.8624 3.53797 11.8039Z" fill="#485FC7"/>
<path fill-rule="evenodd" clip-rule="evenodd" d="M12 9.48004C11.6691 9.48004 11.3414 9.54523 11.0356 9.67187C10.7299 9.79851 10.4521 9.98413 10.2181 10.2181C9.9841 10.4521 9.79847 10.7299 9.67183 11.0357C9.54519 11.3414 9.48001 11.6691 9.48001 12C9.48001 12.331 9.54519 12.6587 9.67183 12.9644C9.79847 13.2701 9.9841 13.5479 10.2181 13.782C10.4521 14.016 10.7299 14.2016 11.0356 14.3282C11.3414 14.4549 11.6691 14.52 12 14.52C12.6684 14.52 13.3093 14.2545 13.7819 13.782C14.2545 13.3094 14.52 12.6684 14.52 12C14.52 11.3317 14.2545 10.6907 13.7819 10.2181C13.3093 9.74554 12.6684 9.48004 12 9.48004ZM8.76001 12C8.76001 11.1407 9.10137 10.3166 9.70898 9.70902C10.3166 9.1014 11.1407 8.76004 12 8.76004C12.8593 8.76004 13.6834 9.1014 14.291 9.70902C14.8987 10.3166 15.24 11.1407 15.24 12C15.24 12.8593 14.8987 13.6835 14.291 14.2911C13.6834 14.8987 12.8593 15.24 12 15.24C11.1407 15.24 10.3166 14.8987 9.70898 14.2911C9.10137 13.6835 8.76001 12.8593 8.76001 12ZM19.08 5.28004C19.08 5.18457 19.0421 5.093 18.9746 5.02549C18.9071 4.95797 18.8155 4.92004 18.72 4.92004H17.28C17.1845 4.92004 17.093 4.95797 17.0254 5.02549C16.9579 5.093 16.92 5.18457 16.92 5.28004C16.92 5.37552 16.9579 5.46709 17.0254 5.5346C17.093 5.60212 17.1845 5.64004 17.28 5.64004H18.36V6.72004C18.36 6.81552 18.3979 6.90709 18.4654 6.9746C18.533 7.04212 18.6245 7.08004 18.72 7.08004C18.8155 7.08004 18.9071 7.04212 18.9746 6.9746C19.0421 6.90709 19.08 6.81552 19.08 6.72004V5.28004Z" fill="#485FC7"/>
<path fill-rule="evenodd" clip-rule="evenodd" d="M18.735 5.26494C18.7685 5.29839 18.7952 5.33813 18.8133 5.38189C18.8315 5.42565 18.8409 5.47256 18.8409 5.51994C18.8409 5.56732 18.8315 5.61424 18.8133 5.658C18.7952 5.70175 18.7685 5.7415 18.735 5.77494L17.295 7.21494C17.2274 7.28257 17.1356 7.32057 17.04 7.32057C16.9443 7.32057 16.8526 7.28257 16.785 7.21494C16.7174 7.14731 16.6794 7.05559 16.6794 6.95994C16.6794 6.8643 16.7174 6.77257 16.785 6.70494L18.225 5.26494C18.2584 5.23138 18.2982 5.20475 18.3419 5.18658C18.3857 5.16841 18.4326 5.15906 18.48 5.15906C18.5274 5.15906 18.5743 5.16841 18.618 5.18658C18.6618 5.20475 18.7015 5.23138 18.735 5.26494ZM4.91998 18.7199C4.91998 18.9189 5.08098 19.0799 5.27998 19.0799H6.71998C6.81546 19.0799 6.90703 19.042 6.97454 18.9745C7.04205 18.907 7.07998 18.8154 7.07998 18.7199C7.07998 18.6245 7.04205 18.5329 6.97454 18.4654C6.90703 18.3979 6.81546 18.3599 6.71998 18.3599H5.63998V17.2799C5.63998 17.1845 5.60205 17.0929 5.53454 17.0254C5.46703 16.9579 5.37546 16.9199 5.27998 16.9199C5.18451 16.9199 5.09294 16.9579 5.02542 17.0254C4.95791 17.0929 4.91998 17.1845 4.91998 17.2799V18.7199Z" fill="#485FC7"/>
<path fill-rule="evenodd" clip-rule="evenodd" d="M5.26598 18.735C5.23242 18.7015 5.20579 18.6618 5.18762 18.618C5.16945 18.5743 5.1601 18.5273 5.1601 18.48C5.1601 18.4326 5.16945 18.3857 5.18762 18.3419C5.20579 18.2981 5.23242 18.2584 5.26598 18.225L6.70598 16.785C6.73947 16.7515 6.77921 16.725 6.82294 16.707C6.86666 16.6889 6.91352 16.6796 6.96083 16.6797C7.00814 16.6797 7.05498 16.6891 7.09867 16.7072C7.14237 16.7254 7.18206 16.752 7.21548 16.7855C7.2489 16.8189 7.2754 16.8587 7.29346 16.9024C7.31152 16.9461 7.3208 16.993 7.32075 17.0403C7.3207 17.0876 7.31134 17.1345 7.29319 17.1782C7.27504 17.2218 7.24847 17.2615 7.21498 17.295L5.77498 18.735C5.74153 18.7685 5.70179 18.7951 5.65803 18.8133C5.61428 18.8315 5.56736 18.8408 5.51998 18.8408C5.4726 18.8408 5.42568 18.8315 5.38192 18.8133C5.33817 18.7951 5.29842 18.7685 5.26498 18.735H5.26598Z" fill="#485FC7"/>
</svg>

<svg width="24" height="24" fill="none" xmlns="http://www.w3.org/2000/svg"><path fill-rule="evenodd" clip-rule="evenodd" d="M4.273 12c1.645 2.38 4.488 3.96 7.727 3.96s6.08-1.58 7.727-3.96C18.08 9.62 15.239 8.04 12 8.04S5.918 9.62 4.273 12Zm-.735-.196C5.294 9.108 8.43 7.32 12 7.32c3.57 0 6.706 1.788 8.462 4.483a.36.36 0 0 1 0 .393C18.706 14.893 15.569 16.68 12 16.68c-3.57 0-6.706-1.788-8.462-4.483a.36.36 0 0 1 0-.393Z" fill="#485FC7"/><path fill-rule="evenodd" clip-rule="evenodd" d="M12 9.48a2.52 2.52 0 1 0 0 5.041 2.52 2.52 0 0 0 0-5.041ZM8.76 12a3.24 3.24 0 1 1 6.48 0 3.24 3.24 0 0 1-6.48 0Zm10.32-6.72a.36.36 0 0 0-.36-.36h-1.44a.36.36 0 0 0 0 .72h1.08v1.08a.36.36 0 1 0 .72 0V5.28Z" fill="#485FC7"/><path fill-rule="evenodd" clip-rule="evenodd" d="M18.735 5.265a.36.36 0 0 1 0 .51l-1.44 1.44a.36.36 0 0 1-.51-.51l1.44-1.44a.36.36 0 0 1 .51 0ZM4.92 18.72c0 .199.161.36.36.36h1.44a.36.36 0 1 0 0-.72H5.64v-1.08a.36.36 0 0 0-.72 0v1.44Z" fill="#485FC7"/><path fill-rule="evenodd" clip-rule="evenodd" d="M5.266 18.735a.36.36 0 0 1 0-.51l1.44-1.44a.358.358 0 0 1 .51 0 .36.36 0 0 1-.001.51l-1.44 1.44a.361.361 0 0 1-.51 0h.001Z" fill="#485FC7"/></svg>
